findly-builder/apps/searchassist/src/assets/icons/sidemenu/new-icons/team_management-active.svg

<svg width="14" height="14" viewBox="0 0 14 14" fill="none" xmlns="http://www.w3.org/2000/svg">
<path d="M7 0.5C5.90234 0.5 5 1.40234 5 2.5C5 3.04688 5.22266 3.54687 5.58594 3.91016V3.91406C5.36328 4.05469 5.16797 4.23438 4.99219 4.4375C4.96094 3.36719 4.07812 2.5 3 2.5C1.90234 2.5 1 3.40234 1 4.5C1 5.03516 1.21875 5.52344 1.5625 5.88281C0.775884 6.31761 0.197957 7.088 0.0419822 8.00229C-0.00445591 8.2745 0.223858 8.5 0.5 8.5C0.776142 8.5 0.993542 8.27271 1.06105 8.00495C1.27982 7.13717 2.06166 6.5 3 6.5C3.45312 6.5 3.86328 6.64844 4.19922 6.89844L5 7.5V6.5C5 5.39062 5.89062 4.5 7 4.5C8.10938 4.5 9 5.39062 9 6.5V7.5L9.80078 6.89844C10.1367 6.64844 10.5469 6.5 11 6.5C11.9383 6.5 12.7202 7.13717 12.939 8.00495C13.0065 8.27271 13.2239 8.5 13.5 8.5C13.7761 8.5 14.0045 8.2745 13.958 8.00229C13.802 7.088 13.2241 6.31761 12.4375 5.88281C12.7812 5.52344 13 5.03516 13 4.5C13 3.40234 12.0977 2.5 11 2.5C9.92188 2.5 9.03906 3.36719 9.00391 4.4375C8.83203 4.23438 8.63672 4.05078 8.41406 3.91016C8.77734 3.54687 9 3.04688 9 2.5C9 1.40234 8.09766 0.5 7 0.5ZM7 1.5C7.55859 1.5 8 1.94141 8 2.5C8 3.05859 7.55859 3.5 7 3.5C6.44141 3.5 6 3.05859 6 2.5C6 1.94141 6.44141 1.5 7 1.5ZM3 3.5C3.55859 3.5 4 3.94141 4 4.5C4 5.05859 3.55859 5.5 3 5.5C2.44141 5.5 2 5.05859 2 4.5C2 3.94141 2.44141 3.5 3 3.5ZM11 3.5C11.5586 3.5 12 3.94141 12 4.5C12 5.05859 11.5586 5.5 11 5.5C10.4414 5.5 10 5.05859 10 4.5C10 3.94141 10.4414 3.5 11 3.5ZM7 7.5C5.90234 7.5 5 8.40234 5 9.5C5 10.0352 5.21875 10.5234 5.5625 10.8828C4.77588 11.3176 4.19796 12.088 4.04198 13.0023C3.99554 13.2745 4.22386 13.5 4.5 13.5C4.77614 13.5 4.99354 13.2727 5.06105 13.0049C5.27982 12.1372 6.06166 11.5 7 11.5C7.93834 11.5 8.72018 12.1372 8.93895 13.0049C9.00646 13.2727 9.22386 13.5 9.5 13.5C9.77614 13.5 10.0045 13.2745 9.95802 13.0023C9.80204 12.088 9.22412 11.3176 8.4375 10.8828C8.78125 10.5234 9 10.0352 9 9.5C9 8.40234 8.09766 7.5 7 7.5ZM7 8.5C7.55859 8.5 8 8.94141 8 9.5C8 10.0586 7.55859 10.5 7 10.5C6.44141 10.5 6 10.0586 6 9.5C6 8.94141 6.44141 8.5 7 8.5Z" fill="#0D6EFD"/>
</svg>

<svg width="14" height="14" fill="none" xmlns="http://www.w3.org/2000/svg"><path d="M7 .5c-1.098 0-2 .902-2 2 0 .547.223 1.047.586 1.41v.004a2.68 2.68 0 0 0-.594.523A2 2 0 0 0 3 2.5c-1.098 0-2 .902-2 2 0 .535.219 1.023.563 1.383a3.012 3.012 0 0 0-1.521 2.12c-.046.271.182.497.458.497s.494-.227.561-.495C1.28 7.137 2.061 6.5 3 6.5c.453 0 .863.148 1.2.398L5 7.5v-1c0-1.11.89-2 2-2 1.11 0 2 .89 2 2v1l.8-.602c.337-.25.747-.398 1.2-.398.938 0 1.72.637 1.939 1.505.068.268.285.495.561.495.276 0 .505-.226.458-.498a3.012 3.012 0 0 0-1.52-2.12C12.78 5.524 13 5.036 13 4.5c0-1.098-.902-2-2-2-1.078 0-1.96.867-1.996 1.938a2.61 2.61 0 0 0-.59-.528A1.99 1.99 0 0 0 9 2.5c0-1.098-.902-2-2-2Zm0 1c.559 0 1 .441 1 1 0 .559-.441 1-1 1-.559 0-1-.441-1-1 0-.559.441-1 1-1Zm-4 2c.559 0 1 .441 1 1 0 .559-.441 1-1 1-.559 0-1-.441-1-1 0-.559.441-1 1-1Zm8 0c.559 0 1 .441 1 1 0 .559-.441 1-1 1-.559 0-1-.441-1-1 0-.559.441-1 1-1Zm-4 4c-1.098 0-2 .902-2 2 0 .535.219 1.023.563 1.383a3.012 3.012 0 0 0-1.521 2.12c-.046.271.182.497.458.497s.494-.227.561-.495c.219-.868 1-1.505 1.939-1.505.938 0 1.72.637 1.939 1.505.067.268.285.495.561.495.276 0 .505-.226.458-.498a3.012 3.012 0 0 0-1.52-2.12C8.78 10.524 9 10.036 9 9.5c0-1.098-.902-2-2-2Zm0 1c.559 0 1 .441 1 1 0 .559-.441 1-1 1-.559 0-1-.441-1-1 0-.559.441-1 1-1Z" fill="#0D6EFD"/></svg>
